X: 171461
T: Quinn's
T: R\'il U\'i Chuinn
S: B.Breathnach: "Ceol Rince na hEireann" II/137ii 
Z: B.Black
L: 1/8
M: 4/4
R: reel
K: D
B|AD (3FED A3B|AFDE FE E2|AD (3FED A3B|ABdf efdB|
AD (3FED A3B|AFDE FE E2|AD (3FED ABAF|ABdf ed d2||
a2 fd eddB|ABdf eBBA|a2 fd eddB|ABdf e2 d2|
a2 fd eddB|ABdf eBBA|a2 fd eddB|ABdf efdB||
